!!!COM: Haydn, Franz Joseph
!!!CDT: 1732/03/31/-1809/05/31/
!!!CNT: Austrian
!!!OTL: Sonata No. 53 in E minor
!!!SCT: Hob. XVI:34
!!!OMV: Mvmt. 3
!!!OMD: Finale: Molto vivace
!!!ODT: ~1777///
!!!SMS: Universal Edition 2, Haydn Piano Sonatas, Vol. 2, No. 14
!!!ONB: Stich und Druck von Jos. Eberle & Co. Wien VII. Seidengasse 3-9
**kern	**dynam	**kern	**dynam
*staff2	*staff2	*staff1	*staff1
*>[A,A,B,B,C,C,D,D,E,E,F,F,G,G,H]	*>[A,A,B,B,C,C,D,D,E,E,F,F,G,G,H]	*>[A,A,B,B,C,C,D,D,E,E,F,F,G,G,H]	*>[A,A,B,B,C,C,D,D,E,E,F,F,G,G,H]
*>norep[A,B,C,D,E,F,G,H]	*>norep[A,B,C,D,E,F,G,H]	*>norep[A,B,C,D,E,F,G,H]	*>norep[A,B,C,D,E,F,G,H]
*>A	*>A	*>A	*>A
*clefF4	*clefF4	*clefG2	*clefG2
*k[f#]	*k[f#]	*k[f#]	*k[f#]
*e:	*e:	*e:	*e:
*M2/4	*M2/4	*M2/4	*M2/4
*MM160	*MM160	*MM160	*MM160
8r	.	8g'/	p
=1	=1	=1	=1
(16E\LL	p	(8.g/L	.
16B\	.	.	.
16G\	.	.	.
16B\JJ	.	16a/Jk)	.
16E\LL	.	8b'\L	.
16B\	.	.	.
16G\	.	8ee`\J	.
16B\JJ	.	.	.
=2	=2	=2	=2
16F#\LL	.	(8dd#\L	.
16B\	.	.	.
16A\	.	8ff#'\J)	.
16B\JJ	.	.	.
16F#\LL	.	8r	.
16B\	.	.	.
16A\	.	(8b\	.
16B\JJ	.	.	.
=3	=3	=3	=3
16E\LL	.	8ee'\L)	.
16B\	.	.	.
16G\	.	(8ee\J	.
16B\JJ	.	.	.
16D#\LL	.	8ff#'\L)	.
16B\	.	.	.
16F#\	.	(8ff#\J	.
16B\JJ	.	.	.
=4	=4	=4	=4
16E\LL	.	4gg\	.
16B\	.	.	.
16D\	.	.	.
16B\JJ	.	.	.
16BB\LL	.	8ff#'\L)	.
16B\	.	.	.
16D#\	.	8ff#'\J	.
16B\JJ)	.	.	.
=5	=5	=5	=5
(16E\LL	.	(8.gg\L	<
16B\	.	.	.
16G\	.	.	.
16B\JJ	.	16aa\Jk	.
16E\LL	.	8bb'\L)	.
16B\	.	.	.
16G\	.	8bb`\J	.
16B\JJ	.	.	.
=6	=6	=6	=6
16C\LL	.	(8aa\L	f
16A\	.	.	.
16E\	.	8ccc'\J)	.
16A\JJ	.	.	.
16C\LL	.	8r	.
16A\	.	.	.
16E\	.	(8aa\	.
16A\JJ	.	.	.
=7	=7	=7	=7
16D\LL	.	8ff#'\L)	.
16c\	.	.	.
16A\	.	8ff#`\J	.
16c\JJ	.	.	.
.	.	(ggQ/	.
16D\LL	.	(8ff#\L)	.
16c\	.	.	.
16A\	.	16ee\L	.
16c\JJ	.	16dd\JJ	.
=8	=8	=8	=8
4G\ 4B\)	.	4gg\)	.
8GG/	.	8r	.
=:|!	=:|!	=:|!	=:|!
*>B	*>B	*>B	*>B
8r	.	8bb'\	p
*clefG2	*clefG2	*	*
=9	=9	=9	=9
16B/LL	p	(8.bb\L	.
16g/	.	.	.
16d/	.	.	.
16g/JJ	.	16ccc\Jk	.
16B/LL	.	8ddd'\L)	.
16g/	.	.	.
16d/	.	8ddd`\J	.
16g/JJ	.	.	.
=10	=10	=10	=10
16c/LL	.	(8ddd\L	.
16g/	.	.	.
16e/	.	8ee\J)	.
16g/JJ	.	.	.
16c/LL	.	8r	.
16g/	.	.	.
16e/	.	8ee'\	.
16g/JJ	.	.	.
=11	=11	=11	=11
16A/LL	.	(8.aa\L	.
16f#/	.	.	.
16c/	.	.	.
16f#/JJ	.	16bb\Jk	.
16A/LL	.	8ccc'\L)	.
16f#/	.	.	.
16c/	.	8ccc`\J	.
16f#/JJ	.	.	.
=12	=12	=12	=12
16B/LL	.	(8ccc\L	.
16f#/	.	.	.
16d#/	.	8dd#'\J)	.
16f#/JJ	.	.	.
*clefF4	*clefF4	*	*
16A\LL	.	8r	.
16d#\	.	.	.
16B\	.	(8b\	.
16d#\JJ	.	.	.
=13	=13	=13	=13
16G\LL	.	8ee'\L)	.
16e\	.	.	.
16B\	.	(8ee\J	.
16e\JJ	.	.	.
16D#\LL	.	8ff#'\L)	.
16B\	.	.	.
16F#\	.	(8ff#\J	.
16B\JJ	.	.	.
=14	=14	=14	=14
.	.	aaQ/	.
16E\LL	.	4gg\	.
16B\	.	.	.
16G\	.	.	.
16B\JJ	.	.	.
16BB\LL	.	8ff#'\L)	.
16B\	.	.	.
16D#\	.	(8bb\J	.
16B\JJ	.	.	.
=15	=15	=15	=15
16C\LL	.	8ee'\L)	<
16B\	.	.	.
16G\	.	(8ee\J	.
16B\JJ	.	.	.
16C\LL	.	8ccc'\L)	.
16A\	.	.	.
16G\	.	(8ccc\J	.
16A\JJ	.	.	.
=16	=16	=16	=16
16BB\LL	.	(4dd#\)	.
16A\	.	.	.
16F#\	.	.	.
16A\JJ	.	.	.
16C\LL	.	8ee'\L)	.
16G\	.	.	.
16E\	.	(8ee\J	p
16G\JJ	.	.	.
=17	=17	=17	=17
16AA\LL	.	8ff#'\L)	.
16F#\	.	.	.
16C\	.	8ff#'\J	.
16F#\JJ	.	.	.
.	.	eeQ/	.
16BB\LL	.	(8dd#\L	.
16A\	.	.	.
16F#\	.	16cc#\L	.
16A\JJ	.	16b\JJ	.
=18	=18	=18	=18
4E\ 4G\	.	4ee\)	.
8EE/	.	8r	.
=:|!|:	=:|!|:	=:|!|:	=:|!|:
*>C	*>C	*>C	*>C
*k[f#c#g#d#]	*k[f#c#g#d#]	*k[f#c#g#d#]	*k[f#c#g#d#]
8r	.	8gg#\	mf
*clefG2	*clefG2	*	*
=19	=19	=19	=19
4e/ 4g#/	mf	(8.gg#\L	.
.	.	16aa\Jk	.
8r	.	8bb'\L)	.
8g#'/ 8b'/	.	8ee`\J	.
=20	=20	=20	=20
8f#'/ 8a'/	.	(8dd#\L	.
8r	.	8ff#'\J)	.
*clefF4	*clefF4	*	*
8A'\	.	16r	.
.	.	(16B/LL	.
8r	.	16c#/	.
.	.	16d#/JJ	.
=21	=21	=21	=21
8G#'\	.	16e/LL	.
.	.	16f#/	.
8r	.	16g#/	.
.	.	16a/JJ	.
8g#\	.	16b\LL	.
.	.	16cc#\	.
8r	.	16dd#\	.
.	.	16ee\JJ)	.
=22	=22	=22	=22
.	.	(bQ/	.
(8f#\L	.	(4a/)	.
8B\J	.	.	.
8e\)	.	8g#\L)	.
8r	.	8gg#'\J	.
*clefG2	*clefG2	*	*
=23	=23	=23	=23
4e/ 4g#/	.	(32gg#\LLL	.
.	.	32aa#\	.
.	.	32gg#\	.
.	.	32ff##\J	.
.	.	16gg#\	.
.	.	16aa#\JJ	.
8r	.	8bb\L)	.
8d#'/ 8f#'/	.	8b#`\J	.
=24	=24	=24	=24
4e/ 4g#/	.	8.cc#\L	.
.	.	16ee\Jk	.
8r	.	8gg#'\L	.
8e'/ 8f#'/	.	8a#`\J	.
=25	=25	=25	=25
8d#'/ 8f#'/L	.	8b'\L	.
(8e/	.	(16ee\L	.
.	.	16cc#\JJ)	.
8f#'/J)	.	(16dd#\LL	.
.	.	16b\)	.
*clefF4	*clefF4	*	*
8F#'\	.	(16cc#\	.
.	.	16a#\JJ)	.
=26	=26	=26	=26
(4B\	.	4b\	.
8BB/)	.	8r	.
=:|!|:	=:|!|:	=:|!|:	=:|!|:
*>D	*>D	*>D	*>D
8r	.	8ff#'\	.
=27	=27	=27	=27
4B\ 4d#\	.	(8.ff#\L	.
.	.	16gg#\Jk	.
8r	.	16aan\LL	.
.	.	16ff#\	.
8A'\ 8B'\	.	16ee\	.
.	.	16dd#\JJ	.
=28	=28	=28	=28
4G#\ 4B\	.	16ee\LL	.
.	.	16dd#\	.
.	.	16ee\	.
.	.	16dd#\JJ	.
8r	.	16ee\LL)	.
.	.	(16bb\	.
*clefG2	*clefG2	*	*
8g#'/ 8b'/	.	16aa\	.
.	.	16gg#\JJ	.
=29	=29	=29	=29
4a\ 4cc#\	.	8.ff#\L	.
.	.	16gg#\Jk	.
8r	.	16aa\LL	.
.	.	16ff#\	.
*clefF4	*clefF4	*	*
8A'\ 8B'\	.	16een\	.
.	.	16dd#\JJ	.
=30	=30	=30	=30
4G#\ 4B\	.	16ee\LL	.
.	.	16dd#\	.
.	.	16ee\	.
.	.	16dd#\JJ	.
8r	.	16ee\LL)	.
.	.	(16bb\	.
*clefG2	*clefG2	*	*
8g#'/ 8b'/	.	16aa\	.
.	.	16gg#\JJ	.
=31	=31	=31	=31
4a\ 4cc#\	.	16ff#\LL	.
.	.	16gg#\	.
.	.	16aa\	.
.	.	16gg#\JJ	.
8r	.	16ff#\LL	.
.	.	16ee\	.
*clefF4	*clefF4	*	*
8A'\ 8c#'\	.	16dd#\	.
.	.	16cc#\JJ	.
=32	=32	=32	=32
4B\	.	16b/LL	.
.	.	16a#/	.
.	.	16b/	.
.	.	16cc#/JJ	.
4r	.	16b/LL	.
.	.	16an/	.
.	.	16g#/	.
.	.	16f#/JJ	.
=33	=33	=33	=33
4E\ 4B\	.	(8.g#/L)	.
.	.	16a/Jk	.
8r	.	8b/L)	.
8G#'\ 8B'\	.	8e`/J	.
=34	=34	=34	=34
8F#'\ 8A'\	.	(8d#/L	.
8r	.	8f#'/J)	.
8AA'/	.	16r	.
.	.	(16B/LL	.
8r	.	16c#/	.
.	.	16d#/JJ	.
=35	=35	=35	=35
4GG#/	.	16e/LL	.
.	.	16f#/	.
.	.	16g#/	.
.	.	16a/JJ	.
8r	.	16b\LL	.
.	.	16cc#\	.
8g#'\	.	16dd#\	.
.	.	16ee\JJ)	.
=36	=36	=36	=36
.	.	(bQ/	.
(8f#\L	.	(4a/)	.
8B\J	.	.	.
8e\)	.	16g#/LL)	.
.	.	(16b/	.
8r	.	16cc#/	.
.	.	16dd#/JJ	.
=37	=37	=37	=37
2r	.	16ee\LL	.
.	.	16ff#\	.
.	.	16gg#\	.
.	.	16aa\JJ	.
.	.	16bb\LL	.
.	.	16gg#\	.
.	.	16ff#\	.
.	.	16ee\JJ)	.
=38	=38	=38	=38
8A'\	.	8r	.
8r	.	8ccc#\	.
*clefG2	*clefG2	*	*
8a'/	.	8r	.
8r	.	8ddd#'\	.
=39	=39	=39	=39
8g#'/L	.	(16eee\LL	.
.	.	16bb\	.
(8a/J	.	16ccc#\	.
.	.	16aa\JJ	.
8b'/L)	.	16gg#\LL	.
.	.	16ee\	.
8B'/J	.	16ff#\	.
.	.	16dd#\JJ	.
=40	=40	=40	=40
(4e/	.	4ee\)	.
*clefF4	*clefF4	*	*
8E\)	.	8r	.
=:|!	=:|!	=:|!	=:|!
*>E	*>E	*>E	*>E
*k[f#]	*k[f#]	*k[f#]	*k[f#]
8r	.	8g'/	p
=41	=41	=41	=41
16E\LL	p	(8.g/L	.
16B\	.	.	.
16G\	.	.	.
16B\JJ	.	16a/Jk	.
16E\LL	.	8b'\L)	.
16B\	.	.	.
16G\	.	8ee`\J	.
16B\JJ	.	.	.
=42	=42	=42	=42
16F#\LL	.	(8dd#\L	.
16B\	.	.	.
16A\	.	8ff#'\J)	.
16B\JJ	.	.	.
16F#\LL	.	8r	.
16B\	.	.	.
16A\	.	(8b\	.
16B\JJ	.	.	.
=43	=43	=43	=43
16E\LL	.	8ee'\L)	.
16B\	.	.	.
16G\	.	(8ee\J	.
16B\JJ	.	.	.
16D#\LL	.	8ff#'\L)	.
16B\	.	.	.
16F#\	.	(8ff#\J	.
16B\JJ	.	.	.
=44	=44	=44	=44
.	.	aaQ/	.
16E\LL	.	4gg\	.
16B\	.	.	.
16G\	.	.	.
16B\JJ	.	.	.
16BB\LL	.	8ff#'\L)	.
16B\	.	.	.
16D#\	.	8ff#'\J	.
16B\JJ	.	.	.
=45	=45	=45	=45
16E\LL	.	(8.gg\L	<
16B\	.	.	.
16G\	.	.	.
16B\JJ	.	16aa\Jk	.
16E\LL	.	8bb'\L)	.
16B\	.	.	.
16G\	.	8bb`\J	.
16B\JJ	.	.	.
=46	=46	=46	=46
16C\LL	.	(8aa'\L	f
16A\	.	.	.
16E\	.	8ccc'\J)	.
16A\JJ	.	.	.
16C\LL	.	8r	.
16A\	.	.	.
16E\	.	(8aa\	.
16A\JJ	.	.	.
=47	=47	=47	=47
16D\LL	.	8ff#'\L)	.
16c\	.	.	.
16A\	.	8ff#`\J	.
16c\JJ	.	.	.
.	.	ggQ/	.
16D\LL	.	(8ff#\L	.
16c\	.	.	.
16A\	.	16ee\L	.
16c\JJ	.	16dd\JJ	.
=48	=48	=48	=48
4G\ 4B\	.	4gg\)	.
8GG/	.	8r	.
8r	.	8bb'\	p
*clefG2	*clefG2	*	*
=49	=49	=49	=49
16B/LL	p	(8.bb\L	.
16g/	.	.	.
16d/	.	.	.
16g/JJ	.	16ccc\Jk	.
16B/LL	.	8ddd'\L)	.
16g/	.	.	.
16d/	.	8ddd`\J	.
16g/JJ	.	.	.
=50	=50	=50	=50
16c/LL	.	(8ddd\L	.
16g/	.	.	.
16e/	.	8ee'\J)	.
16g/JJ	.	.	.
16c/LL	.	8r	.
16g/	.	.	.
16e/	.	8ee'\	.
16g/JJ	.	.	.
=51	=51	=51	=51
16A/LL	.	(8.aa\L	.
16f#/	.	.	.
16c/	.	.	.
16f#/JJ	.	16bb\Jk	.
16A/LL	.	8ccc\L)	.
16f#/	.	.	.
16c/	.	8ccc`\J	.
16f#/JJ	.	.	.
=52	=52	=52	=52
16B/LL	.	(8ccc\L	.
16f#/	.	.	.
16d#/	.	8dd#'\J)	.
16f#/JJ	.	.	.
*clefF4	*clefF4	*	*
16A\LL	.	8r	.
16d#\	.	.	.
16B\	.	(8b\	.
16d#\JJ	.	.	.
=53	=53	=53	=53
16G\LL	.	8ee'\L)	.
16e\	.	.	.
16B\	.	(8ee\J	.
16e\JJ	.	.	.
16D#\LL	.	8ff#'\L)	.
16B\	.	.	.
16F#\	.	8ff#`\J	.
16B\JJ	.	.	.
=54	=54	=54	=54
.	.	(aaQ/	.
16E\LL	.	(4gg\)	.
16B\	.	.	.
16G\	.	.	.
16B\JJ	.	.	.
16BB\LL	.	8ff#'\L)	.
16B\	.	.	.
16D#\	.	(8bb\J	.
16B\JJ	.	.	.
=55	=55	=55	=55
16C\LL	.	8ee'\L)	<
16B\	.	.	.
16G\	.	(8ee\J	.
16B\JJ	.	.	.
16C\LL	.	8ccc'\L)	.
16A\	.	.	.
16G\	.	(8ccc\J	.
16A\JJ	.	.	.
=56	=56	=56	=56
16BB\LL	.	(4dd#\)	.
16A\	.	.	.
16F#\	.	.	.
16A\JJ	.	.	.
16C\LL	.	8ee'\L)	.
16G\	.	.	.
16E\	.	(8ee\J	p
16G\JJ	.	.	.
=57	=57	=57	=57
16AA\LL	.	8ff#'\L)	.
16F#\	.	.	.
16C\	.	8ff#'\J	.
16F#\JJ	.	.	.
.	.	eeQ/	.
16BB\LL	.	(8dd#\L	.
16A\	.	.	.
16F#\	.	16cc#\L	.
16A\JJ	.	16b\JJ	.
=58	=58	=58	=58
4E\ 4G\	.	4ee\)	.
8EE/	.	8r	.
8r	.	8bb'\	.
*clefG2	*clefG2	*	*
=59	=59	=59	=59
16B/LL	.	(16bb\LL	mf
16g/	.	16ddd\	.
16d/	.	16ccc\	.
16g/JJ	.	16eee\JJ	.
16B/LL	.	8ddd'\L)	.
16g/	.	.	.
16d/	.	8ddd`\J	.
16g/JJ	.	.	.
=60	=60	=60	=60
16c/LL	.	(16ddd\LL	.
16g/	.	16ee\	.
16e/	.	16dd#\	.
16g/JJ	.	16ee\JJ	.
16c/LL	.	16dd#\LL	.
16g/	.	16ee\	.
16e/	.	16dd#\	.
16g/JJ	.	16ee\JJ)	.
=61	=61	=61	=61
16A/LL	.	(8.aa\L	.
16f#/	.	.	.
16c/	.	.	.
16f#/JJ	.	16bb\Jk	.
16A/LL	.	8ccc'\L)	.
16f#/	.	.	.
16c/	.	8ccc`\J	.
16f#/JJ	.	.	.
=62	=62	=62	=62
16B/LL	.	(4ccc\	.
16f#/	.	.	.
16d#/	.	.	.
16f#/JJ	.	.	.
16B/LL	.	8dd#'\L)	.
16f#/	.	.	.
16d#/	.	8dd#'\J	.
16f#/JJ	.	.	.
*clefF4	*clefF4	*	*
=63	=63	=63	=63
16G\LL	.	(16gg\LL	<
16e\	.	16ff#\	.
16B\	.	16aa\	.
16e\JJ	.	16gg\JJ	.
16G\LL	.	8bb'\L)	.
16e\	.	.	.
16B\	.	8bb`\J	.
16e\JJ	.	.	.
=64	=64	=64	=64
16A\LL	.	(16bb\LL	.
16e\	.	16cc\	.
16c\	.	16b\	.
16e\JJ	.	16cc\JJ	.
16A\LL	.	16dd\LL	.
16e\	.	16cc\	.
16c\	.	16b\	.
16e\JJ	.	16cc\JJ)	.
=65	=65	=65	=65
16F#\LL	.	(8.ff#\L	.
16d\	.	.	.
16A\	.	.	.
16d'\JJ	.	16gg\Jk	.
16F#\LL	.	8aa'\L)	.
16d\	.	.	.
16A\	.	8aa`\J	.
16d\JJ	.	.	.
=66	=66	=66	=66
16G\LL	.	(8aa\L	.
16d\	.	.	.
16B\	.	8b'\J)	.
16d\JJ	.	.	.
16BB\LL	.	(8gg\L	.
16G\	.	.	.
16D\	.	8dd'\J)	.
16G\JJ	.	.	.
=67	=67	=67	=67
16C\LL	.	(8ee\L	.
16A\	.	.	.
16E\	.	8a'\J)	.
16A\JJ	.	.	.
16D\LL	.	(8cc/L	.
16c\	.	.	.
16A\	.	8f#'/J)	.
16c\JJ	.	.	.
=68	=68	=68	=68
[4G;\ (4c;\	.	(4a;/	f
8G;\] 8B;\)	.	8g;/L)	.
8r	.	8g'/J	p
=69	=69	=69	=69
16E\LL	p	(8.g/L	.
16B\	.	.	.
16G\	.	.	.
16B\JJ	.	16a/Jk	.
16E\LL	.	8b'\L)	.
16B\	.	.	.
16G\	.	8ee`\J	.
16B\JJ	.	.	.
=70	=70	=70	=70
16F#\LL	.	(8dd#\L	.
16B\	.	.	.
16A\	.	8ff#'\J)	.
16B\JJ	.	.	.
16F#\LL	.	8r	.
16B\	.	.	.
16A\	.	8b'\	.
16B\JJ	.	.	.
=71	=71	=71	=71
16E\LL	.	8r	.
16B\	.	.	.
16G\	.	8ee'\	.
16B\JJ	.	.	.
16D#\LL	.	8r	.
16B\	.	.	.
16F#\	.	8ff#\	.
16B\JJ	.	.	.
=72	=72	=72	=72
.	.	(aaQ/	.
16E\LL	.	4gg\	.
16B\	.	.	.
16G\	.	.	.
16B\JJ	.	.	.
16BB\LL	.	8ff#\L)	.
16B\	.	.	.
16D#\	.	(8bb\J	.
16B\JJ	.	.	.
=73	=73	=73	=73
16C\LL	.	8ee'\L)	<
16B\	.	.	.
16G\	.	(8ee\J	.
16B\JJ	.	.	.
16C\LL	.	8ccc'\L)	.
16A\	.	.	.
16G\	.	(8ccc\J	.
16A\JJ	.	.	.
=74	=74	=74	=74
16BB\LL	.	(4dd#\)	p
16A\	.	.	.
16F#\	.	.	.
16A\JJ	.	.	.
16C\LL	.	8ee'\L)	.
16G\	.	.	.
16E\	.	(8ee\J	.
16G\JJ	.	.	.
=75	=75	=75	=75
16AA\LL	.	8ff#'\L)	.
16F#\	.	.	.
16C\	.	8ff#'\J	.
16F#\JJ	.	.	.
.	.	(eeQ/	.
16BB\LL	.	(8dd#\L)	.
16A\	.	.	.
16F#\	.	16cc#\L	.
16A\JJ	.	16b\JJ	.
=76	=76	=76	=76
4E\ 4G\	.	4ee\)	.
8EE/	.	8r	.
=:|!|:	=:|!|:	=:|!|:	=:|!|:
*>F	*>F	*>F	*>F
*k[f#c#g#d#]	*k[f#c#g#d#]	*k[f#c#g#d#]	*k[f#c#g#d#]
8r	.	8gg#'\	mf
*clefG2	*clefG2	*	*
=77	=77	=77	=77
16e/LL	mf	(8.gg#\L	.
16b/	.	.	.
16g#/	.	.	.
16b/JJ	.	16aa\Jk	.
16e/LL	.	8bb'\L)	.
16b/	.	.	.
16g#/	.	8ee`\J	.
16b/JJ	.	.	.
=78	=78	=78	=78
16B/LL	.	(8dd#\L	.
16a/	.	.	.
16f#/	.	8ff#'\J)	.
16a/JJ	.	.	.
16B/LL	.	8r	.
16a/	.	.	.
16f#/	.	8b'\	.
16a/JJ	.	.	.
=79	=79	=79	=79
16e/LL	.	(16dd#\LL	.
16b/	.	16ee\	.
16g#/	.	16dd#\	.
16b/JJ	.	16ee\JJ	.
16d#/LL	.	16ee#\LL	.
16b/	.	16ff#\	.
16f#/	.	16ee#\	.
16b/JJ	.	16ff#\JJ	.
=80	=80	=80	=80
.	.	aaQ/	.
16e/LL	.	4gg#\	.
16b/	.	.	.
16g#/	.	.	.
16b/JJ	.	.	.
16B/LL	.	8ff#'\L)	.
16b/	.	.	.
16d#/	.	8ff#'\J	.
16b/JJ	.	.	.
=81	=81	=81	=81
16e/LL	.	(16ff#\LL	.
16b/	.	16gg#\	.
16g#/	.	16ff#\	.
16b/JJ	.	16gg#\JJ	.
16e/LL	.	8aa#'\L)	.
16cc#/	.	.	.
16f#/	.	8aa#`\J	.
16cc#/JJ	.	.	.
=82	=82	=82	=82
16d#/LL	.	4.bb\	.
16b/	.	.	.
16f#/	.	.	.
16b/JJ	.	.	.
16d#/LL	.	.	.
16b/	.	.	.
16f#/	.	8ff#'\	.
16b/JJ	.	.	.
=83	=83	=83	=83
4e/	.	(16ff#\LL	.
.	.	16ee\	.
.	.	16gg#\	.
.	.	16ee\JJ	.
8r	.	16dd#\LL	.
.	.	16cc#\	.
8f#'/	.	16b\	.
.	.	16a#\JJ	.
*clefF4	*clefF4	*	*
=84	=84	=84	=84
(4B\	.	4b\)	.
8BB/)	.	8r	.
=:|!|:	=:|!|:	=:|!|:	=:|!|:
*>G	*>G	*>G	*>G
8r	.	8ff#'\	.
*clefG2	*clefG2	*	*
=85	=85	=85	=85
16B/LL	.	(16ee#\LL	.
16a/	.	16ff#\	.
16f#/	.	16ee#\	.
16a/JJ	.	16ff#\JJ	.
16B/LL	.	8aa\L	.
16a/	.	.	.
16f#/	.	8dd#\J)	.
16a/JJ	.	.	.
=86	=86	=86	=86
16B/LL	.	(8.een\L	.
16g#/	.	.	.
16e/	.	.	.
16g#/JJ	.	16gg#\Jk	.
16B/LL	.	8bb\L)	.
16g#/	.	.	.
16e/	.	8bb`\J	.
16g#/JJ	.	.	.
=87	=87	=87	=87
16B/LL	.	(16ee#\LL	.
16a/	.	16ff#\	.
16f#/	.	16ee#\	.
16a/JJ	.	16ff#\JJ	.
16B/LL	.	8aa\L	.
16a/	.	.	.
16f#/	.	8dd#\J)	.
16a/JJ	.	.	.
=88	=88	=88	=88
16B/LL	.	(8.een\L	.
16g#/	.	.	.
16e/	.	.	.
16g#/JJ	.	16gg#\Jk	.
16B/LL	.	8bb\L)	.
16g#/	.	.	.
16e/	.	(8bb\J	.
16g#/JJ	.	.	.
=89	=89	=89	=89
16B/LL	.	8aa'\L)	.
16f#/	.	.	.
16d#/	.	(8aa\J	.
16f#/JJ	.	.	.
16B/LL	.	8gg#'\L)	.
16g#/	.	.	.
16e/	.	(8gg#\J	.
16g#/JJ	.	.	.
=90	=90	=90	=90
4B/	.	16ff#\LL)	f
.	.	(16bb\	.
.	.	16aa#\	.
.	.	16gg#\JJ	.
4r	.	16ff#\LL	.
.	.	16ee\	.
.	.	16dd#\	.
.	.	16cc#\JJ	.
*clefF4	*clefF4	*	*
=91	=91	=91	=91
4BB/	.	16b/LL)	.
.	.	(16b/	.
.	.	16a#/	.
.	.	16g#/JJ	.
4r	.	16f#/LL	.
.	.	16e/	.
.	.	16d#/	.
.	.	16c#/JJ	.
=92	=92	=92	=92
4.BBB/	.	4.B/)	.
8r	.	8gg#'\	mf
*clefG2	*clefG2	*	*
=93	=93	=93	=93
16e/LL	.	(8.gg#\L	.
16b/	.	.	.
16g#/	.	.	.
16b/JJ	.	16aa\Jk	.
16e/LL	.	8bb\L)	.
16b/	.	.	.
16g#/	.	8ee`\J	.
16b/JJ	.	.	.
=94	=94	=94	=94
16B/LL	.	(8dd#\L	.
16a/	.	.	.
16f#/	.	8ff#'\J)	.
16a/JJ	.	.	.
16B/LL	.	8r	.
16a/	.	.	.
16f#/	.	8b'\	.
16a/JJ	.	.	.
=95	=95	=95	=95
16e/LL	.	(16dd#\LL	.
16b/	.	16ee\	.
16g#/	.	16dd#\	.
16b/JJ	.	16ee\JJ	.
16d#/LL	.	16ee#\LL	.
16b/	.	16ff#\	.
16f#/	.	16ee#\	.
16b/JJ	.	16ff#\JJ	.
=96	=96	=96	=96
.	.	aaQ/	.
16e/LL	.	4gg#\	.
16b/	.	.	.
16g#/	.	.	.
16b/JJ	.	.	.
16B/LL	.	8ff#'\L)	.
16b/	.	.	.
16d#/	.	(8ff#\J	.
16b/JJ	.	.	.
=97	=97	=97	=97
16e/LL	.	8gg#'\L)	.
16b/	.	.	.
16g#/	.	(8gg#\J	.
16b/JJ	.	.	.
16c#/LL	.	8aa'\L)	.
16a/	.	.	.
16e/	.	(8aa\J	.
16a/JJ	.	.	.
=98	=98	=98	=98
16G#/LL	.	4bb\)	.
16e/	.	.	.
16B/	.	.	.
16e/JJ	.	.	.
.	.	(ccc#Q/	.
16G#/LL	.	(8bb\L)	.
16e/	.	.	.
16B/	.	16aa\L	.
16e/JJ	.	16gg#\JJ	.
=99	=99	=99	=99
16A/LL	.	8ff#'\L)	.
16f#/	.	.	.
16c#/	.	8ff#'\J	.
16f#/JJ	.	.	.
.	.	eeQ/	.
16B/LL	.	(8dd#\L	.
16a/	.	.	.
16f#/	.	16cc#\L	.
16a/JJ	.	16b\JJ	.
=100	=100	=100	=100
4e/ 4g#/	.	4ee\)	.
*clefF4	*clefF4	*	*
8E\	.	8r	.
=:|!	=:|!	=:|!	=:|!
*>H	*>H	*>H	*>H
*k[f#]	*k[f#]	*k[f#]	*k[f#]
8r	.	8g'/	p
=101	=101	=101	=101
16E\LL	p	(8.g/L	.
16B\	.	.	.
16G\	.	.	.
16B\JJ	.	16a/Jk	.
16E\LL	.	8b'\L)	.
16B\	.	.	.
16G\	.	8ee`\J	.
16B\JJ	.	.	.
=102	=102	=102	=102
16F#\LL	.	(8dd#\L	.
16B\	.	.	.
16A\	.	8ff#'\J)	.
16B\JJ	.	.	.
16F#\LL	.	8r	.
16B\	.	.	.
16A\	.	(8b\	.
16B\JJ	.	.	.
=103	=103	=103	=103
16E\LL	.	8ee'\L)	.
16B\	.	.	.
16G\	.	(8ee\J	.
16B\JJ	.	.	.
16D#\LL	.	8ff#'\L)	.
16B\	.	.	.
16F#\	.	(8ff#\J	.
16B\JJ	.	.	.
=104	=104	=104	=104
.	.	aaQ/	.
16E\LL	.	4gg\	.
16B\	.	.	.
16G\	.	.	.
16B\JJ	.	.	.
16BB\LL	.	8ff#'\L)	.
16B\	.	.	.
16D#\	.	8ff#'\J	.
16B\JJ	.	.	.
=105	=105	=105	=105
16E\LL	.	(8.gg\L	<
16B\	.	.	.
16G\	.	.	.
16B\JJ	.	16aa\Jk	.
16E\LL	.	8bb\L)	.
16B\	.	.	.
16G\	.	8bb`\J	.
16B\JJ	.	.	.
=106	=106	=106	=106
16C\LL	.	(8aa\L	f
16A\	.	.	.
16E\	.	8ccc'\J)	.
16A\JJ	.	.	.
16C\LL	.	8r	.
16A\	.	.	.
16E\	.	(8aa\	.
16A\JJ	.	.	.
=107	=107	=107	=107
16D\LL	.	8ff#'\L)	.
16c\	.	.	.
16A\	.	8ff#`\J	.
16c\JJ	.	.	.
.	.	ggQ/	.
16D\LL	.	(8ff#\L	.
16c\	.	.	.
16A\	.	16ee\L	.
16c\JJ	.	16dd\JJ	.
=108	=108	=108	=108
4G\ 4B\	.	4gg\)	.
8GG/	.	8r	.
8r	.	8g'/	p
=109	=109	=109	=109
16E\LL	p	(8.g/L	.
16B\	.	.	.
16G\	.	.	.
16B\JJ	.	16a/Jk	.
16E\LL	.	8b'\L)	.
16B\	.	.	.
16G\	.	8ee`\J	.
16B\JJ	.	.	.
=110	=110	=110	=110
16F#\LL	.	8dd#'\	.
16B\	.	.	.
16A\	.	(4bb\	.
16B\JJ	.	.	.
16F#\LL	.	.	.
16B\	.	.	.
16A\	.	16ff#\LL	p
16B\JJ	.	16dd#\JJ	.
=111	=111	=111	=111
16E\LL	.	(8bb\L)	.
16B\	.	.	.
16G\	.	16gg\L	.
16B\JJ	.	16ee\JJ	.
16D#\LL	.	(8ccc\L)	.
16B\	.	.	.
16F#\	.	16aa\L	.
16B\JJ	.	16ff#\JJ	.
=112	=112	=112	=112
.	.	ff#Q/	.
16E\LL	.	4gg\	.
16B\	.	.	.
16G\	.	.	.
16B\JJ	.	.	.
16BB\LL	.	8ff#'\L)	.
16B\	.	.	.
16D#\	.	8ff#'\J	mf
16B\JJ	.	.	.
=113	=113	=113	=113
16E\LL	.	(8.gg\L	<
16B\	.	.	.
16G\	.	.	.
16B\JJ	.	16aa\Jk	.
16E\LL	.	8bb\L)	.
16B\	.	.	.
16G\	.	8bb'\J	.
16B\JJ	.	.	.
=114	=114	=114	=114
16C\LL	.	(16aa\LL	f
16A\	.	16ccc\	.
16E\	.	16eee\	.
16A\JJ	.	16ddd\JJ	.
16C\LL	.	16ccc\LL	.
16A\	.	16bb\	.
16E\	.	16aa\	.
16A\JJ	.	16gg\JJ	.
=115	=115	=115	=115
16D\LL	.	8ff#`\L)	.
16c\	.	.	.
16A\	.	8aa`\J	.
16c\JJ	.	.	.
16D\LL	.	(8ccc\L	.
16c\	.	.	.
16A\	.	16aa\L	.
16c\JJ	.	16ff#\JJ	.
=116	=116	=116	=116
4G\ 4B\	.	4gg\)	.
8GG/	.	8r	.
8r	.	8bb'\	p
*clefG2	*clefG2	*	*
=117	=117	=117	=117
16B/LL	p	(8bb\L	.
16g/	.	.	.
16d/	.	8ccc\J	.
16g/JJ	.	.	.
16B/LL	.	8ccc#\L	.
16g/	.	.	.
16d/	.	8ddd'\J)	.
16g/JJ	.	.	.
=118	=118	=118	=118
16c/LL	.	(8ddd\L	.
16g/	.	.	.
16e/	.	8ee'\J)	.
16g/JJ	.	.	.
16c/LL	.	(16ffn\LL	.
16g/	.	16ff#\	.
16e/	.	16gg\	.
16g/JJ	.	16gg#\JJ	.
=119	=119	=119	=119
16A/LL	.	8aa\L	.
16f#/	.	.	.
16c/	.	8bb\J)	.
16f#/JJ	.	.	.
16A/LL	.	(8bb\L	.
16f#/	.	.	.
16c/	.	8ccc'\J)	.
16f#/JJ	.	.	.
=120	=120	=120	=120
16B/LL	.	(4ccc\	.
16f#/	.	.	.
16d#/	.	.	.
16f#/JJ	.	.	.
*clefF4	*clefF4	*	*
16A\LL	.	8dd#'\L)	.
16d#\	.	.	.
16B\	.	(8b\J	.
16d#\JJ	.	.	.
=121	=121	=121	=121
16G\LL	.	8ee'\L)	.
16e\	.	.	.
16B\	.	(8ee\J	.
16e\JJ	.	.	.
16D#\LL	.	8ff#'\L)	<
16B\	.	.	.
16F#\	.	(8ff#\J	.
16B\JJ	.	.	.
=122	=122	=122	=122
.	.	aaQ/	.
16E\LL	.	4gg\	>
16B\	.	.	.
16G\	.	.	.
16B\JJ	.	.	.
16BB\LL	.	8ff#'\L)	.
16B\	.	.	.
16D#\	.	(8bb\J	.
16B\JJ	.	.	.
=123	=123	=123	=123
16C\LL	.	8ee'\L)	<
16B\	.	.	.
16G\	.	(8ee\J	.
16B\JJ	.	.	.
16C\LL	.	8ccc'\L)	.
16A\	.	.	.
16G\	.	8ccc\J	.
16A\JJ	.	.	.
=124	=124	=124	=124
16BB\LL	.	(4dd#\	.
16A\	.	.	.
16F#\	.	.	.
16A\JJ	.	.	.
16C\LL	.	8ee'\L)	.
16G\	.	.	.
16E\	.	(8ee\J	p
16G\JJ	.	.	.
=125	=125	=125	=125
16AA\LL	.	8ff#'\L)	.
16F#\	.	.	.
16C\	.	8ff#'\J	.
16F#\JJ	.	.	.
.	.	eeQ/	.
16BB\LL	.	(8dd#\L	.
16A\	.	.	.
16F#\	.	16cc#\L	.
16A\JJ	.	16b\JJ	.
=126	=126	=126	=126
4E\ 4G\	.	4ee\)	.
8EE/	.	8r	.
8r	.	8bb'\	.
*clefG2	*clefG2	*	*
=127	=127	=127	=127
16B/LL	.	(16bb\LL	<
16g/	.	16ccc\	.
16d/	.	16ddd\)	.
16g/JJ	.	16ddd`\JJ	.
16B/LL	.	16ddd`\LL	.
16g/	.	16ddd`\	.
16d/	.	16ddd`\	.
16g/JJ	.	16ddd`\JJ	.
=128	=128	=128	=128
16c/LL	.	(8ddd\L	>
16g/	.	.	.
16e/	.	8ee'\J)	.
16g/JJ	.	.	.
16c/LL	.	8r	.
16g/	.	.	.
16e/	.	8ee'\	.
16g/JJ	.	.	.
=129	=129	=129	=129
16A/LL	.	(16aa\LL	<
16f#/	.	16bb\	.
16c/	.	16ccc\)	.
16f#/JJ	.	16ccc`\JJ	.
16A/LL	.	16ccc`\LL	.
16f#/	.	16ccc`\	.
16c/	.	16ccc`\	.
16f#/JJ	.	16ccc`\JJ	.
=130	=130	=130	=130
16B/LL	.	(8ccc\L	>
16f#/	.	.	.
16d#/	.	8dd#'\J)	.
16f#/JJ	.	.	.
*clefF4	*clefF4	*	*
16A\LL	.	8r	.
16d#\	.	.	.
16B\	.	8b'\	.
16d#\JJ	.	.	.
=131	=131	=131	=131
(16G\LL	.	(16dd#\LL	<
16e\)	.	16ee\	.
16B\	.	16dd#\	.
16e\JJ	.	16ee\JJ	.
16D#\LL	.	8ff#'\L)	.
16B\	.	.	.
16F#\	.	(8ff#'\J	.
16B\JJ	.	.	.
=132	=132	=132	=132
.	.	aaQ/	.
16E\LL	.	4gg\	.
16B\	.	.	.
16G\	.	.	.
16B\JJ	.	.	.
16BB\LL	.	8ff#'\L)	.
16B\	.	.	.
16D#\	.	[8bb\J	.
16B\JJ	.	.	.
=133	=133	=133	=133
16C\LL	.	(8bb\]	<
16B\	.	.	.
16G\	.	4ee\)	.
16B\JJ	.	.	.
16C\LL	.	.	.
16A\	.	.	.
16G\	.	(8ccc\	.
16A\JJ	.	.	.
=134	=134	=134	=134
16BB\LL	.	8dd#'\L)	f
16A\	.	.	.
16F#\	.	(8dd#\J	.
16A\JJ	.	.	.
16C\LL	.	8ee'\L)	.
16G\	.	.	.
16E\	.	8ee'\J	.
16G\JJ	.	.	.
=135	=135	=135	=135
8AA'\ 8A'\	.	8r	.
8r	.	8a'\ 8ff#'\	.
8BB'\ 8B'\	.	8r	.
8r	.	8f#'/ 8dd#'/	.
=136	=136	=136	=136
4EE/ 4E/	.	4e/ 4ee/	.
8r	.	8r	.
==	==	==	==
*-	*-	*-	*-
!!!ENC: Craig Stuart Sapp
!!!END: 2009/08/26/
